theme-base/src/main/assets/themes/mapsforgeV3/base/symbols/db_poi_waterfall.svg

<svg enable-background="new 0 0 48 48" height="48" viewBox="0 0 48 48" width="48" xmlns="http://www.w3.org/2000/svg"><path d="m44 44c-2.221 0-3.46-.74-4.359-1.28-.741-.44-1.202-.72-2.301-.72-1.119 0-1.561.26-2.3.72-.92.54-2.14 1.28-4.36 1.28s-3.459-.74-4.359-1.28c-.741-.44-1.201-.72-2.301-.72-1.12 0-1.56.26-2.299.72-.921.54-2.161 1.28-4.381 1.28s-3.46-.74-4.36-1.28c-.74-.46-1.2-.72-2.3-.72s-1.56.26-2.3.72c-.92.54-2.16 1.28-4.38 1.28v-4c1.12 0 1.56-.26 2.3-.72.92-.54 2.16-1.28 4.38-1.28s3.46.74 4.36 1.28c.74.46 1.18.72 2.3.72s1.56-.26 2.3-.72c.92-.54 2.16-1.28 4.38-1.28 2.221 0 3.461.74 4.36 1.28.74.439 1.2.72 2.3.72s1.561-.26 2.301-.72c.899-.54 2.139-1.28 4.359-1.28 2.221 0 3.46.74 4.36 1.28.739.46 1.18.72 2.3.72z"/><path d="m4 4h25v4h-25z"/><path d="m5 6h13s6 3 6 13c0 5-6 19-6 19s2.516-9.906 1-19c-1-6-14-13-14-13z"/><path d="m13 5h13s6 3 6 13c0 5-6 18-6 18s2.516-8.906 1-18c-1-6-14-13-14-13z"/><path d="m21 4h13s6 3 6 13c0 5-6 17-6 17s2.516-7.906 1-17c-1-6-14-13-14-13z"/></svg>

<?xml version="1.0" encoding="utf-8"?>
<!-- Generator: Adobe Illustrator 15.0.2, SVG Export Plug-In . SVG Version: 6.00 Build 0)  -->
<!DOCTYPE svg PUBLIC "-//W3C//DTD SVG 1.1//EN" "http://www.w3.org/Graphics/SVG/1.1/DTD/svg11.dtd">
<svg version="1.1" id="Vrstva_2" xmlns="http://www.w3.org/2000/svg" xmlns:xlink="http://www.w3.org/1999/xlink" x="0px" y="0px"
	 width="48px" height="48px" viewBox="0 0 48 48" enable-background="new 0 0 48 48" xml:space="preserve">
<path d="M44,44c-2.221,0-3.46-0.74-4.359-1.28C38.9,42.28,38.439,42,37.34,42c-1.119,0-1.561,0.26-2.3,0.72
	C34.12,43.26,32.9,44,30.68,44c-2.22,0-3.459-0.74-4.359-1.28C25.58,42.28,25.12,42,24.02,42c-1.12,0-1.56,0.26-2.299,0.72
	C20.8,43.26,19.56,44,17.34,44c-2.22,0-3.46-0.74-4.36-1.28c-0.74-0.46-1.2-0.72-2.3-0.72c-1.1,0-1.56,0.26-2.3,0.72
	C7.46,43.26,6.22,44,4,44v-4c1.12,0,1.56-0.26,2.3-0.72C7.22,38.74,8.46,38,10.68,38c2.22,0,3.46,0.74,4.36,1.28
	c0.74,0.46,1.18,0.72,2.3,0.72c1.12,0,1.56-0.26,2.3-0.72C20.56,38.74,21.8,38,24.02,38c2.221,0,3.461,0.74,4.36,1.28
	c0.74,0.439,1.2,0.72,2.3,0.72s1.561-0.26,2.301-0.72C33.88,38.74,35.12,38,37.34,38c2.221,0,3.46,0.74,4.36,1.28
	C42.439,39.74,42.88,40,44,40V44z"/>
<g display="none">
	<g display="inline">
		<path d="M39,22C37.735,11.88,28,4,28,4H2c0,0,10,9,13,17c1.909,5.091,1.958,10.911,1.652,14.956C16.853,35.984,17.076,36,17.34,36
			c1.12,0,1.56-0.26,2.3-0.72C20.56,34.74,21.8,34,24.02,34c2.221,0,3.461,0.74,4.36,1.28c0.74,0.439,1.2,0.72,2.3,0.72
			s1.561-0.26,2.301-0.72C33.88,34.74,35.12,34,37.34,34c0.59,0,1.106,0.055,1.569,0.142C39.265,30.45,39.484,25.874,39,22z M21,31
			c0,0,0.254-5.111-2-13c-2-7-7-10-7-10h6c0,0,3,1,4,10C22.787,25.086,21,31,21,31z M35.04,38.72C34.12,39.26,32.9,40,30.68,40
			c-2.22,0-3.459-0.74-4.359-1.28C25.58,38.28,25.12,38,24.02,38c-1.12,0-1.56,0.26-2.299,0.72C20.8,39.26,19.56,40,17.34,40
			c-0.419,0-0.794-0.033-1.148-0.08C16.081,40.61,16,41,16,41h22c0,0,0.2-1.103,0.442-2.861C38.141,38.051,37.796,38,37.34,38
			C36.221,38,35.779,38.26,35.04,38.72z"/>
	</g>
</g>
<g>
	<rect x="4" y="4" width="25" height="4"/>
	<path d="M5,6l13,0c0,0,6,3,6,13c0,5-6,19-6,19s2.516-9.906,1-19C18,13,5,6,5,6z"/>
	<path d="M13,5l13,0c0,0,6,3,6,13c0,5-6,18-6,18s2.516-8.906,1-18C26,12,13,5,13,5z"/>
	<path d="M21,4l13,0c0,0,6,3,6,13c0,5-6,17-6,17s2.516-7.906,1-17C34,11,21,4,21,4z"/>
</g>
</svg>
